icon-themes/breeze_svg/cmd/lc_dbdistinctvalues.svg

<svg viewBox="0 0 24 24" xmlns="http://www.w3.org/2000/svg"><path d="m6 4-1 1v1 .3046875l5 7.0625005v3.632812.039062l3.990234 2.960938h.009766v-6.632812l5-7.0625005v-1.3046875l-1-1zm0 1h12v.9882812l-4.964844 7.0117188h-.035156v.048828.951172 4.019531l-2-1.484375v-2.535156-.951172-.048828h-.03516l-4.96484-7.0117188zm1 1 2 3v-2l2-1z" fill="#4d4d4d"/><path d="m18.5625 13.71875-.78125 1.28125h-2.78125v1h2.1875l-.59375 1h-1.59375v1h1l-.4375.71875.875.53125.75-1.25h2.8125v-1h-2.21875l.59375-1h1.625v-1h-1l.4375-.75z" fill="#1d99f3"/></svg>

<?xml version="1.0" encoding="UTF-8" standalone="no"?>
<svg
   xmlns:dc="http://purl.org/dc/elements/1.1/"
   xmlns:cc="http://creativecommons.org/ns#"
   xmlns:rdf="http://www.w3.org/1999/02/22-rdf-syntax-ns#"
   xmlns:svg="http://www.w3.org/2000/svg"
   xmlns="http://www.w3.org/2000/svg"
   xmlns:sodipodi="http://sodipodi.sourceforge.net/DTD/sodipodi-0.dtd"
   xmlns:inkscape="http://www.inkscape.org/namespaces/inkscape"
   viewBox="0 0 24 24"
   version="1.1"
   id="svg4"
   sodipodi:docname="lc_dbdistinctvalues.svg"
   inkscape:version="0.92.4 (unknown)"
   inkscape:export-filename="/media/rizmut/Data/Rizmut/FOSS/LibreOffice/libreoffice/icon-themes/breeze/cmd/lc_dbdistinctvalues.png"
   inkscape:export-xdpi="96"
   inkscape:export-ydpi="96">
  <metadata
     id="metadata10">
    <rdf:RDF>
      <cc:Work
         rdf:about="">
        <dc:format>image/svg+xml</dc:format>
        <dc:type
           rdf:resource="http://purl.org/dc/dcmitype/StillImage" />
      </cc:Work>
    </rdf:RDF>
  </metadata>
  <defs
     id="defs8" />
  <sodipodi:namedview
     pagecolor="#ffffff"
     bordercolor="#666666"
     borderopacity="1"
     objecttolerance="10"
     gridtolerance="10"
     guidetolerance="10"
     inkscape:pageopacity="0"
     inkscape:pageshadow="2"
     inkscape:window-width="1360"
     inkscape:window-height="714"
     id="namedview6"
     showgrid="true"
     inkscape:zoom="6.9532167"
     inkscape:cx="-5.1525824"
     inkscape:cy="8.2588452"
     inkscape:window-x="0"
     inkscape:window-y="28"
     inkscape:window-maximized="1"
     inkscape:current-layer="svg4">
    <inkscape:grid
       type="xygrid"
       id="grid817" />
  </sodipodi:namedview>
  <path
     d="M 6,4 5,5 v 1 0.3046875 l 5,7.0625005 V 17 17.039062 L 13.990234,20 H 14 V 13.367188 L 19,6.3046875 V 5 L 18,4 Z M 6,5 H 18 V 5.9882812 L 13.035156,13 H 13 V 13.048828 14 18.019531 L 11,16.535156 V 14 13.048828 13 h -0.03516 L 6,5.9882812 Z M 7,6 9,9 V 7 l 2,-1 z"
     id="path2"
     inkscape:connector-curvature="0"
     style="fill:#4d4d4d"
     sodipodi:nodetypes="cccccccccccccccccccccccccccccccccc" />
  <path
     id="path819"
     d="M 18.5625,13.71875 17.78125,15 H 15 v 1 h 2.1875 l -0.59375,1 H 15 v 1 h 1 l -0.4375,0.71875 0.875,0.53125 0.75,-1.25 H 20 V 17 H 17.78125 L 18.375,16 H 20 v -1 h -1 l 0.4375,-0.75 z"
     inkscape:connector-curvature="0"
     style="fill:#1d99f3;fill-opacity:1"
     sodipodi:nodetypes="ccccccccccccccccccccc" />
</svg>
